img/sqlite.svg

<svg width="512" height="228" viewBox="0 0 512 228" xmlns="http://www.w3.org/2000/svg" xmlns:xlink="http://www.w3.org/1999/xlink" preserveAspectRatio="xMidYMid"><defs><linearGradient x1="57.6615627%" y1="2.04644676%" x2="57.6615584%" y2="94.4387516%" id="linearGradient-1"><stop stop-color="#97d9f6" offset="0"/><stop stop-color="#0f80cc" offset="92.024499%"/><stop stop-color="#0f80cc" offset="100%"/></linearGradient></defs><g><path d="M194.519337 112.044206C187.698564 112.044206 182.152486 114.063211 177.900552 118.099455 173.648619 122.139234 171.491713 127.434452 171.491713 133.922666 171.491713 137.285148 172.027403 140.350953 173.082873 143.160235 174.138343 145.975174 175.780773 148.582909 177.98895 150.939241 180.197127 153.297694 184.617017 156.501413 191.20442 160.5746 199.287514 165.509134 204.577238 169.513908 207.116022 172.640884 209.656575 175.765215 210.917127 179.03947 210.917127 182.453039 210.917127 187.023558 209.412597 190.671912 206.320442 193.414365 203.222983 196.158062 199.080663 197.524862 193.944751 197.524862 188.527735 197.524862 183.809061 195.6153 179.756906 191.823204 175.704751 188.025635 173.659227 183.002703 173.61326 176.707182H171.093923V199.558011H173.61326C174.38232 197.394203 175.44663 196.287293 176.839779 196.287293 177.509834 196.287293 179.079779 196.749436 181.524862 197.61326 187.474033 199.730026 192.358895 200.751381 196.198895 200.751381 202.816354 200.751381 208.464972 198.433775 213.171271 193.723757 217.870497 189.015874 220.243094 183.337017 220.243094 176.707182 220.243094 171.56632 218.676685 166.992435 215.60221 163.005539 212.527735 159.013848 206.548508 154.370829 197.61326 149.038688 189.92442 144.419175 184.933481 140.65681 182.629834 137.723771 180.322652 134.794961 179.138122 131.555204 179.138122 128.000014 179.138122 124.154703 180.550718 121.066084 183.337017 118.762438 186.123315 116.457024 189.774144 115.314924 194.342541 115.314924 199.483757 115.314924 203.769282 116.84067 207.160221 119.911609 210.547624 122.987852 212.506519 127.250747 213.082873 132.729296H215.60221V112.928184H213.259669C212.97326 113.937687 212.708066 114.58299 212.464088 114.872935 212.227182 115.161112 211.77105 115.314924 211.093923 115.314924 210.278895 115.314924 208.825635 114.971941 206.762431 114.29835 202.342541 112.809731 198.267403 112.044206 194.519337 112.044206v0zm82.34254099999998.0C268.550718 112.044206 261.005083 114.003101 254.187845 117.922659 247.36 121.835145 241.955359 127.268073 237.966851 134.187859 233.98011 141.107101 232 148.455772 232 156.287307 232 166.808751 235.443978 176.182269 242.38674 184.39779 249.333039 192.608361 257.656575 197.724471 267.314917 199.690608 269.523094 200.841193 272.682431 203.811359 276.81768 208.618785 281.478011 214.044103 285.420552 217.957127 288.662983 220.287293 291.901878 222.618689 295.398895 224.327425 299.093923 225.458564 302.792486 226.584935 306.791602 227.138122 311.116022 227.138122 316.352707 227.138122 321.041326 226.227978 325.171271 224.353591L324.243094 222.055249C321.845746 222.919963 319.289282 223.337017 316.596685 223.337017 312.94232 223.337017 309.249061 222.131978 305.546961 219.712707 301.850166 217.287425 297.226961 212.660162 291.712707 205.834254 289.120884 202.563536 287.331713 200.499978 286.320442 199.690608 296.887514 197.62705 305.577017 192.505635 312.353591 184.309392 319.128398 176.116685 322.519337 166.766518 322.519337 156.287307 322.519337 143.84459 318.092376 133.387499 309.303867 124.861886 300.508287 116.335388 289.691934 112.044206 276.861878 112.044206v0zm51.40331500000002.0L328.397719 114.740339C333.931421 114.740339 337.030648 116.370394 337.723686 119.646416 337.981808 120.818571 338.100261 122.982902 338.121476 126.099455L338.077348 185.723757C338.031381 190.176884 337.396685 193.02011 336.176796 194.254144 334.955138 195.479337 332.890166 196.24663 329.900552 196.552486L329.768027 199.248619H384.928248L386.342612 185.723757H383.823275C383.103717 189.408177 381.454214 192.047565 378.8288 193.546961 376.196314 195.057319 371.541286 195.801105 364.81775 195.801105H359.602281C353.552336 195.801105 350.051783 193.61396 349.127143 189.21547 348.936203 188.345282 348.870789 187.412324 348.861949 186.38674L349.082944 126.099455C349.081529 121.653399 349.643386 118.67404 350.806701 117.215477 351.982391 115.762217 354.10217 114.948957 357.171341 114.740339L357.038815 112.044206H328.265335 328.265193zM277.745856 115.314924C287.119558 115.314924 294.773039 119.00677 300.685083 126.453046 306.595359 133.901988 309.524862 144.111211 309.524862 157.038688 309.524862 169.288656 306.552928 179.097289 300.596685 186.475138 294.640442 193.850696 286.712928 197.524862 276.861878 197.524862 267.398011 197.524862 259.723315 193.736133 253.834254 186.121547 247.950497 178.506961 245.038674 168.620906 245.038674 156.464103 245.038674 143.971727 247.985856 133.971631 253.922652 126.497245 259.855912 119.030814 267.801105 115.314924 277.745856 115.314924v0zM404.596685 128.132611C403.251271 128.132611 402.225856 128.586975 401.458564 129.502777 400.673591 130.415028 400.433149 131.52 400.707182 132.861893 400.972376 134.163631 401.706077 135.3045 402.872928 136.265208 404.032707 137.22501 405.28442 137.723771 406.629834 137.723771 407.93105 137.723771 408.922873 137.225038 409.635359 136.265208 410.347845 135.3045 410.565304 134.163631 410.298343 132.861893 410.024309 131.52 409.315359 130.415028 408.220994 129.502777 407.114254 128.586975 405.897901 128.132611 404.596685 128.132611v0zM440.972376 137.281782C438.686409 146.075934 433.730829 150.834917 426.121547 151.602224L426.209945 154.121561H435.093923L434.917127 183.911602C434.931271 189.004729 435.086851 192.395669 435.447514 194.121547 436.322652 198.253444 439.020552 200.353591 443.535912 200.353591 450.068508 200.353591 456.921105 196.374276 464.088398 188.41989L461.922652 186.563536C456.747845 191.801819 452.172376 194.430939 448.176796 194.430939 445.721105 194.430939 444.198895 193.018696 443.624309 190.232044 443.466961 189.555271 443.403315 188.764471 443.403315 187.845304L443.491713 154.121561H457.060773L456.928248 150.099462H443.535982V137.281782H440.972446 440.972376zM493.436464 148.508301C485.84663 148.508301 479.672928 152.192721 474.872928 159.513826 470.09768 166.847307 468.619669 174.97228 470.497238 183.911602 471.60221 189.14775 473.803315 193.20593 477.171271 196.066298 480.533923 198.925436 484.8 200.353591 489.900552 200.353591 494.649282 200.353591 501.261436 199.151211 504.044199 196.729282 506.834033 194.308766 509.404641 190.38744 511.779006 185.016575L509.878453 183.027624C506.091492 189.995138 498.448619 193.502762 492.685083 193.502762 484.761105 193.502762 479.908066 189.155359 478.099448 180.508287 477.864309 179.404545 477.689282 178.218785 477.569061 176.972376 486.995801 175.479867 494.14011 172.836943 498.961326 169.016575 503.779006 165.194099 508.616133 161.142283 507.712707 156.861893 507.175249 154.318328 505.854586 152.318416 503.823204 150.806644 501.765304 149.295579 496.422541 148.508301 493.436464 148.508301v0zM410.475138 148.817694 394.121547 152.5746V155.491727L399.779006 154.784545C402.519337 154.784545 404.131713 156.02548 404.640884 158.497252 404.812376 159.324485 404.920221 160.486202 404.950276 161.944766L404.773481 188.685083C404.727514 192.385414 404.317348 194.536479 403.491713 195.18232 402.659006 195.829392 400.463204 196.154696 396.906077 196.154696L396.81768 198.674033H422.762431L422.718303 196.154696C419.113441 196.154696 416.776203 195.870239 415.734877 195.314917 414.711231 194.763145 414.005817 193.758946 413.701728 192.220994 413.46659 191.112656 413.364049 189.202924 413.348137 186.563536L413.436535 148.817694H410.475209 410.475138zM489.281768 153.76797C490.860552 153.76797 492.386298 154.377731 493.922652 155.580125 495.43779 156.778275 496.360663 158.110593 496.662983 159.558025 498.142762 166.667159 491.84 171.582048 477.657459 174.320442 477.252597 169.136626 478.150718 164.430865 480.441989 160.17681 482.71558 155.926814 485.676906 153.76797 489.281768 153.76797v0z" fill="#003b57"/><path d="M157.887646 9.95179492H17.1498785C7.71748066 9.95179492 142108547e-22 17.6706899 142108547e-22 27.1027341V182.31016C142108547e-22 191.741666 7.71748066 199.459331 17.1498785 199.459331H109.843448C108.79135 153.338017 124.54117 63.8308448 157.887646 9.95179492v0z" fill="#0f80cc"/><path d="M152.774718 14.9551098H17.1498785c-6.697547.0-12.14780115 5.4488398-12.14780115 12.147624299999999V170.986233C35.7181878 159.197504 81.8193467 149.025535 113.695413 149.487509 120.100971 115.994079 138.926844 50.3540911 152.774718 14.9551098v0z" fill="url(#linearGradient-1)"/><path d="M190.71505 4.8724579C181.076155-3.7233432 169.405878-.270525525 157.887646 9.95179492 156.178033 11.470469 154.471956 13.1553308 152.774718 14.9551098 133.070851 35.8576513 114.781348 74.5758833 109.099138 104.144944 111.312619 108.633784 113.04168 114.361961 114.180243 118.737651 114.471956 119.860303 114.735381 120.914005 114.945768 121.810358 115.446099 123.931729 115.714829 125.307375 115.714829 125.307375 115.714829 125.307375 115.538033 124.638911 114.813171 122.536988 114.675271 122.133894 114.521459 121.693673 114.339359 121.175662 114.261569 120.96174 114.153724 120.70185 114.035271 120.424281 112.749967 117.436436 109.194608 111.130137 107.629967 108.384502 106.291624 112.332347 105.108862 116.025607 104.118807 119.367044 108.635934 127.631883 111.388641 141.795684 111.388641 141.795684 111.388641 141.795684 111.149967 140.877762 110.014939 137.674056 109.007204 134.840546 103.987978 126.046381 102.799028 123.990425 100.765171 131.498587 99.9570387 136.567669 100.68579 137.801872 102.100685 140.193393 103.448221 144.319802 104.631514 148.88325 107.304663 159.163729 109.162785 171.678918 109.162785 171.678918 109.162785 171.678918 109.222895 172.508259 109.323669 173.784553 108.952398 182.417835 109.17516 191.368811 109.843448 199.459331 110.729193 210.169253 112.396376 219.369526 114.521459 224.293452L115.96411 223.506896C112.843669 213.805939 111.576044 201.092568 112.131182 186.430911 112.970961 164.020133 118.128088 136.993747 127.65737 108.824723 143.756376 66.3018502 166.092729 32.1838391 186.535602 15.8903585 167.903116 32.7177618 142.684994 87.186712 135.135823 107.35732 126.683227 129.944723 120.693392 151.140929 117.083227 171.4489 123.311735 152.410321 143.450519 144.226624 143.450519 144.226624 143.450519 144.226624 153.328088 132.044885 164.871072 114.641298 157.956597 116.218314 146.602785 118.917983 142.799912 120.516215 137.190188 122.869364 135.678586 123.672016 135.678586 123.672016 135.678586 123.672016 153.849635 112.606381 169.43947 107.595994 190.87947 73.828038 214.237702 25.8563253 190.71505 4.8724579" fill="#003b57"/></g></svg>

<svg xmlns="http://www.w3.org/2000/svg" width="512" height="228" preserveAspectRatio="xMidYMid" xmlns:v="https://vecta.io/nano"><defs><linearGradient x1="57.6615627%" y1="2.04644676%" x2="57.6615584%" y2="94.4387516%" id="A"><stop stop-color="#97d9f6" offset="0"/><stop stop-color="#0f80cc" offset="92.024499%"/><stop stop-color="#0f80cc" offset="100%"/></linearGradient></defs><path d="M194.52 112.044c-6.82 0-12.367 2.02-16.62 6.055s-6.41 9.335-6.41 15.823c0 3.362.536 6.428 1.59 9.238 1.055 2.815 2.698 5.423 4.906 7.78s6.628 5.562 13.215 9.635c8.083 4.935 13.373 8.94 15.912 12.066s3.8 6.4 3.8 9.812c0 4.57-1.505 8.22-4.597 10.96-3.097 2.744-7.24 4.1-12.376 4.1-5.417 0-10.136-1.9-14.188-5.702-4.052-3.798-6.098-8.82-6.144-15.116h-2.52v22.85h2.52c.77-2.164 1.833-3.27 3.227-3.27.67 0 2.24.462 4.685 1.326 5.95 2.117 10.834 3.138 14.674 3.138 6.617 0 12.266-2.318 16.972-7.028 4.7-4.708 7.072-10.387 7.072-17.017 0-5.14-1.566-9.715-4.64-13.702s-9.054-8.635-17.99-13.967c-7.69-4.62-12.68-8.382-14.983-11.315s-3.492-6.17-3.492-9.724c0-3.845 1.413-6.934 4.2-9.238s6.437-3.448 11.006-3.448c5.14 0 9.427 1.526 12.818 4.597 3.387 3.076 5.346 7.34 5.923 12.818h2.52v-19.8h-2.343c-.286 1-.552 1.655-.796 1.945-.237.288-.693.442-1.37.442-.815 0-2.268-.343-4.33-1.017-4.42-1.49-8.495-2.254-12.243-2.254h0zm82.343 0c-8.31 0-15.857 1.96-22.674 5.878-6.828 3.912-12.232 9.345-16.22 16.265S232 148.456 232 156.287c0 10.52 3.444 19.895 10.387 28.1s15.27 13.327 24.928 15.293c2.208 1.15 5.368 4.12 9.503 8.928 4.66 5.425 8.603 9.338 11.845 11.67a35.59 35.59 0 0 0 10.431 5.171c3.7 1.126 7.698 1.68 12.022 1.68 5.237 0 9.925-.9 14.055-2.785l-.928-2.298c-2.397.865-4.954 1.282-7.646 1.282-3.654 0-7.348-1.205-11.05-3.624-3.697-2.425-8.32-7.053-13.834-13.878-2.592-3.27-4.38-5.334-5.392-6.144 10.567-2.064 19.257-7.185 26.033-15.38s10.166-17.543 10.166-28.022c0-12.443-4.427-22.9-13.215-31.425-8.796-8.526-19.612-12.818-32.442-12.818h0zm51.403 0l.133 2.696c5.534 0 8.633 1.63 9.326 4.906.258 1.172.377 3.336.398 6.453l-.044 59.624c-.046 4.453-.68 7.296-1.9 8.53-1.222 1.225-3.287 1.992-6.276 2.298l-.133 2.696h55.16l1.414-13.525h-2.52c-.72 3.684-2.37 6.324-4.994 7.823-2.632 1.5-7.288 2.254-14.01 2.254h-5.215c-6.05 0-9.55-2.187-10.475-6.586-.19-.87-.256-1.803-.265-2.83l.22-60.287c-.001-4.446.56-7.425 1.724-8.884 1.176-1.453 3.295-2.267 6.365-2.475l-.133-2.696h-28.774zm-50.52 3.27c9.374 0 17.027 3.692 22.94 11.138s8.84 17.658 8.84 30.586c0 12.25-2.972 22.06-8.928 29.436s-13.884 11.05-23.735 11.05c-9.464 0-17.14-3.79-23.028-11.403-5.884-7.615-8.796-17.5-8.796-29.657 0-12.492 2.947-22.492 8.884-29.967 5.933-7.466 13.878-11.182 23.823-11.182h0zm126.85 12.818c-1.345 0-2.37.454-3.138 1.37-.785.912-1.025 2.017-.75 3.36.265 1.302 1 2.443 2.166 3.403 1.16.96 2.41 1.46 3.757 1.46 1.3 0 2.293-.5 3.006-1.46s.93-2.102.663-3.403c-.274-1.342-.983-2.447-2.077-3.36-1.107-.916-2.323-1.37-3.624-1.37h0zm36.376 9.15c-2.286 8.794-7.242 13.553-14.85 14.32l.088 2.52h8.884l-.177 29.8c.014 5.093.17 8.484.53 10.2.875 4.132 3.573 6.232 8.088 6.232 6.533 0 13.385-3.98 20.552-11.934l-2.166-1.856c-5.175 5.238-9.75 7.867-13.746 7.867-2.456 0-3.978-1.412-4.552-4.2-.157-.677-.22-1.468-.22-2.387l.088-33.724h13.57l-.133-4.022h-13.392v-12.818h-2.564zm52.464 11.227c-7.6 0-13.764 3.684-18.564 11.006-4.775 7.333-6.253 15.458-4.376 24.398 1.105 5.236 3.306 9.294 6.674 12.155 3.363 2.86 7.63 4.287 12.73 4.287 4.75 0 11.36-1.202 14.144-3.624 2.8-2.42 5.36-6.342 7.735-11.713l-1.9-1.99c-3.787 6.968-11.43 10.475-17.193 10.475-7.924 0-12.777-4.347-14.586-12.994-.235-1.104-.4-2.3-.53-3.536 9.427-1.493 16.57-4.135 21.392-7.956s9.655-7.874 8.75-12.155a9.85 9.85 0 0 0-3.89-6.055c-2.058-1.51-7.4-2.298-10.387-2.298h0zm-82.96.31l-16.354 3.757v2.917l5.657-.707c2.74 0 4.353 1.24 4.862 3.713.17.827.28 1.99.31 3.448l-.177 26.74c-.046 3.7-.456 5.85-1.282 6.497-.833.647-3.03.972-6.586.972l-.088 2.52h25.945l-.044-2.52c-3.605 0-5.942-.284-6.983-.84-1.024-.552-1.73-1.556-2.033-3.094-.235-1.108-.338-3.018-.354-5.657l.088-37.746h-2.96zm78.807 4.95c1.58 0 3.105.6 4.64 1.812 1.515 1.198 2.438 2.53 2.74 3.978 1.48 7.11-4.823 12.024-19.006 14.762-.405-5.184.493-9.9 2.785-14.144 2.274-4.25 5.235-6.41 8.84-6.41h0z" fill="#003b57"/><path d="M157.888 9.952H17.15C7.717 9.952 0 17.67 0 27.103V182.3c0 9.432 7.717 17.15 17.15 17.15h92.694C108.79 153.338 124.54 63.83 157.888 9.952h0z" fill="#0f80cc"/><path d="M152.775 14.955H17.15c-6.698 0-12.148 5.45-12.148 12.148v143.883c30.716-11.79 76.817-21.96 108.693-21.5 6.406-33.493 25.23-99.133 39.08-134.532h0z" fill="url(#A)"/><path d="M190.715 4.872c-9.64-8.596-21.31-5.143-32.827 5.08-1.7 1.52-3.416 3.204-5.113 5.003-19.704 20.903-37.993 59.62-43.676 89.2 2.213 4.49 3.943 10.217 5.08 14.593l.766 3.073c.5 2.12.77 3.497.77 3.497s-.177-.668-.902-2.77l-.474-1.36a15.78 15.78 0 0 0-.304-.751c-1.285-2.988-4.84-9.294-6.405-12.04-1.338 3.948-2.52 7.64-3.51 10.983 4.517 8.265 7.27 22.43 7.27 22.43s-.24-.918-1.374-4.122c-1.008-2.834-6.027-11.628-7.216-13.684-2.034 7.508-2.842 12.577-2.113 13.81 1.415 2.392 2.762 6.518 3.946 11.08 2.673 10.28 4.53 22.796 4.53 22.796l.16 2.106c-.37 8.633-.15 17.584.52 25.675.886 10.7 2.553 19.9 4.678 24.834l1.443-.787c-3.12-9.7-4.388-22.414-3.833-37.076.84-22.41 5.997-49.437 15.526-77.606 16.1-42.523 38.435-76.64 58.878-92.934-18.632 16.827-43.85 71.296-51.4 91.467-8.453 22.587-14.442 43.784-18.053 64.092 6.23-19.04 26.367-27.222 26.367-27.222s9.878-12.182 21.42-29.585c-6.914 1.577-18.268 4.277-22.07 5.875-5.6 2.353-7.12 3.156-7.12 3.156s18.17-11.066 33.76-16.076c21.44-33.768 44.798-81.74 21.276-102.724" fill="#003b57"/></svg>
